svg/s/MQ-UNF.svg

<svg fill="none" height="12" viewBox="0 0 16 12" width="16" xmlns="http://www.w3.org/2000/svg"><path d="m0 0h16v12h-16z" fill="#21428e"/><path clip-rule="evenodd" d="m6.26184 2.56575c0 .03669.02148.05969.03812.07752.028.02999.04231.04533-.08226.08646-.18759.0656-.6952.15305-1.04831.14212-.06752 0-.18626-.02368-.29164-.04469-.08406-.01677-.15962-.03183-.1939-.03183-.04619.00572.05869.05933.1439.10289.07761.03968.1389.071.05473.05016-.24277-.0656-.38622-.08746-.19863.03279.14345.08746.46347.08746.9159.0328.09266-.01148.26434-.04403.43051-.07553.15045-.02853.29638-.0562.37504-.06659.06334-.00627.09033.02348.11434.04996.01783.01965.03401.0375.06222.0375.59588.03279 1.65523.01093 2.1187-.05466.38622-.05466.52968-.0328.64002.09839.2207.25143-.01103.47008-.64002.60126-.77244.16398-1.09246.3061-1.3904.62313-.71727.76525.12138 1.62888 1.68834 1.74913.9159.07653 1.5118.25144 1.3683.39356-.0551.05466-.66206.14212-1.35726.19678-1.51179.12025-2.18492.32796-2.75873.87456-.32001.3061-.43036.49195-.43036.74338 0 .14524 0 .23018-.04186.27986-.05895.06997-.20096.06997-.54299.06997-.30898 0-.73934-.04373-.93797-.10932-.30898-.07653-.35312-.07652-.24277.05466.2207.26237.84969.49194 1.36833.49194.39726 0 .61796.07653.97107.32797.70624.5138 1.51179.71058 2.84701.69965 1.75453-.01093 2.75873-.47008 2.75873-1.24626 0-.5794-.6621-.91829-2.04146-1.03855-.6952-.06559-2.06353.04373-2.65941.21865-.11035.03279.01103-.04373.27587-.17492.32001-.15305.84969-.26237 1.56696-.32796 1.58904-.13118 2.30634-.48101 2.30634-1.13694 0-.63406-.7063-.99482-2.21806-1.13693-1.48972-.13119-1.60007-.39356-.34209-.77618.89383-.26237 1.34625-.65593 1.34625-1.1916 0-.8199-.45242-1.09321-1.9642-1.16973-.9159-.04373-1.1366-.02187-1.53386.16398-.26483.12025-.4745.29517-.4745.38262zm1.31001-.08575c-.05156.1-.18904.2-.27496.2-.10311 0-.12029-.1-.06874-.2.05156-.12.18903-.2.27496-.2.10311 0 .12029.08.06874.2zm1.09178 6.7077c.72995.06299 1.92837-.12597 2.11357-.34012.0654-.07559-.3845-.2708-.5915-.35898-.7412-.22925-2.20845-.14491-2.93841.18262-.26148.12597.61011.4283 1.41634.51648z" fill="#fff" fill-rule="evenodd"/></svg>

<svg width="16" height="12" viewBox="0 0 16 12" fill="none" xmlns="http://www.w3.org/2000/svg">
<rect width="16" height="12" fill="#21428E"/>
<path fill-rule="evenodd" clip-rule="evenodd" d="M6.26184 2.56575C6.26184 2.60244 6.28332 2.62544 6.29996 2.64327C6.32796 2.67326 6.34227 2.6886 6.2177 2.72973C6.03011 2.79533 5.5225 2.88278 5.16939 2.87185C5.10187 2.87185 4.98313 2.84817 4.87775 2.82716C4.79369 2.81039 4.71813 2.79533 4.68385 2.79533C4.63766 2.80105 4.74254 2.85466 4.82775 2.89822C4.90536 2.9379 4.96665 2.96922 4.88248 2.94838C4.63971 2.88278 4.49626 2.86092 4.68385 2.98117C4.8273 3.06863 5.14732 3.06863 5.59975 3.01397C5.69241 3.00249 5.86409 2.96994 6.03026 2.93844C6.18071 2.90991 6.32664 2.88224 6.4053 2.87185C6.46864 2.86558 6.49563 2.89533 6.51964 2.92181C6.53747 2.94146 6.55365 2.95931 6.58186 2.95931C7.17774 2.9921 8.23709 2.97024 8.70056 2.90465C9.08678 2.84999 9.23024 2.87185 9.34058 3.00304C9.56128 3.25447 9.32955 3.47312 8.70056 3.6043C7.92812 3.76828 7.6081 3.9104 7.31016 4.22743C6.59289 4.99268 7.43154 5.85631 8.9985 5.97656C9.9144 6.05309 10.5103 6.228 10.3668 6.37012C10.3117 6.42478 9.70474 6.51224 9.00954 6.5669C7.49775 6.68715 6.82462 6.89486 6.25081 7.44146C5.9308 7.74756 5.82045 7.93341 5.82045 8.18484C5.82045 8.33008 5.82045 8.41502 5.77859 8.4647C5.71964 8.53467 5.57763 8.53467 5.2356 8.53467C4.92662 8.53467 4.49626 8.49094 4.29763 8.42535C3.98865 8.34882 3.94451 8.34883 4.05486 8.48001C4.27556 8.74238 4.90455 8.97195 5.42319 8.97195C5.82045 8.97195 6.04115 9.04848 6.39426 9.29992C7.1005 9.81372 7.90605 10.0105 9.24127 9.99957C10.9958 9.98864 12 9.52949 12 8.75331C12 8.17391 11.3379 7.83502 9.95854 7.71476C9.26334 7.64917 7.89501 7.75849 7.29913 7.93341C7.18878 7.9662 7.31016 7.88968 7.575 7.75849C7.89501 7.60544 8.42469 7.49612 9.14196 7.43053C10.731 7.29935 11.4483 6.94952 11.4483 6.29359C11.4483 5.65953 10.742 5.29877 9.23024 5.15666C7.74052 5.02547 7.63017 4.7631 8.88815 4.38048C9.78198 4.11811 10.2344 3.72455 10.2344 3.18888C10.2344 2.36898 9.78198 2.09567 8.2702 2.01915C7.3543 1.97542 7.1336 1.99728 6.73634 2.18313C6.47151 2.30338 6.26184 2.4783 6.26184 2.56575ZM7.57185 2.48C7.52029 2.58 7.38281 2.68 7.29689 2.68C7.19378 2.68 7.1766 2.58 7.22815 2.48C7.27971 2.36 7.41718 2.28 7.50311 2.28C7.60622 2.28 7.6234 2.36 7.57185 2.48ZM8.66363 9.1877C9.39358 9.25069 10.592 9.06173 10.7772 8.84758C10.8426 8.77199 10.3927 8.57678 10.1857 8.4886C9.4445 8.25935 7.97725 8.34369 7.24729 8.67122C6.98581 8.79719 7.8574 9.09952 8.66363 9.1877Z" fill="white"/>
</svg>
